X:482
T:Ryttarpolska efter Persapojkarna
R:Polska
N:Gammalpolska Delsbo
D:Skäggmanslaget, "Snus, mus och brännvin"
S:Efter Persapojkarna
S:Efter Erik Ljung
Z:Håkan Lidén, 2008-09-27
O:Delsbo, Hälsingland
M: 3/4
L: 1/8
K: D
DD/D/ DD/D/ D2 | fd d/e/d/c/ cA | A/A/A A/A/A A>f | ge/c/ d>A FE |
DD/D/ DD/D/ D2 | fd d/e/d/c/ cA | A/A/A A/A/A A>f | ge/c/ d4 :|
|: Ab a2 e>f | ga/g/ fg/f/ e2- | eb gf ed | cd/c/ Bc/B/ A2- |
Ab a2 e>f | ga/g/ fg/f/ e2- | eb gf ed | c/d/e/c/ d4 :|
(:musicend:)

(:music:)
